public/images/down-left-fill.svg

<?xml version="1.0" encoding="UTF-8" standalone="no"?>
<svg viewBox="0 -30 118 118" version="1.1" xmlns="http://www.w3.org/2000/svg" xmlns:xlink="http://www.w3.org/1999/xlink">
    <g id="Page-1" stroke="none" stroke-width="1" fill="none" fill-rule="evenodd">
        <path d="M16.1,42.65 L16.1,16.05 L25.25,16.05 C55.7166667,17.4166667 71.3166667,34.1666667 72.05,66.3 L72.05,67.9 L72.05,70.3 L72.05,71.9 L72.05,72.05 L45.35,72.05 L45.35,68.2 L45.35,67.75 C44.65,55.9166667 39.5166667,48.3 29.95,44.9 L30.05,44.95 C26.5166667,43.45 22.25,42.6833333 17.25,42.65 L16.1,42.65 M49.45,36.35 C49.45,37.1166667 49.7166667,37.7666667 50.25,38.3 C50.7833333,38.8333333 51.4333333,39.1 52.2,39.1 C52.9666667,39.1 53.6166667,38.8333333 54.15,38.3 C54.6833333,37.7666667 54.95,37.1166667 54.95,36.35 C54.95,35.5833333 54.6833333,34.9333333 54.15,34.4 C53.6166667,33.8666667 52.9666667,33.6 52.2,33.6 C51.4333333,33.6 50.7833333,33.8666667 50.25,34.4 C49.7166667,34.9333333 49.45,35.5833333 49.45,36.35 M35.5,32.6 C34.4666667,33.6666667 33.95,34.95 33.95,36.45 L33.95,36.6 C33.9833333,38.0333333 34.5,39.25 35.5,40.25 C36.5666667,41.3166667 37.85,41.85 39.35,41.85 C40.5166667,41.85 41.55,41.5333333 42.45,40.9 L43.15,40.25 C44.1833333,39.25 44.7166667,38.0333333 44.75,36.6 L44.75,36.45 C44.75,34.95 44.2166667,33.6666667 43.15,32.6 L42.45,32 C41.55,31.3666667 40.5166667,31.05 39.35,31.05 C37.85,31.05 36.5666667,31.5666667 35.5,32.6" id="Shape" fill="#1EA7E1"></path>
        <path d="M35.5,32.6 C36.5666667,31.5666667 37.85,31.05 39.35,31.05 C40.5166667,31.05 41.55,31.3666667 42.45,32 L43.15,32.6 C44.2166667,33.6666667 44.75,34.95 44.75,36.45 L44.75,36.6 C44.7166667,38.0333333 44.1833333,39.25 43.15,40.25 L42.45,40.9 C41.55,41.5333333 40.5166667,41.85 39.35,41.85 C37.85,41.85 36.5666667,41.3166667 35.5,40.25 C34.5,39.25 33.9833333,38.0333333 33.95,36.6 L33.95,36.45 C33.95,34.95 34.4666667,33.6666667 35.5,32.6 M49.45,36.35 C49.45,35.5833333 49.7166667,34.9333333 50.25,34.4 C50.7833333,33.8666667 51.4333333,33.6 52.2,33.6 C52.9666667,33.6 53.6166667,33.8666667 54.15,34.4 C54.6833333,34.9333333 54.95,35.5833333 54.95,36.35 C54.95,37.1166667 54.6833333,37.7666667 54.15,38.3 C53.6166667,38.8333333 52.9666667,39.1 52.2,39.1 C51.4333333,39.1 50.7833333,38.8333333 50.25,38.3 C49.7166667,37.7666667 49.45,37.1166667 49.45,36.35" id="Shape" fill="#2CB8F3"></path>
    </g>
</svg>

<svg viewBox="0 -30 118 118" xmlns="http://www.w3.org/2000/svg"><g fill="none" fill-rule="evenodd"><path d="M16.1 42.65v-26.6h9.15c30.467 1.367 46.067 18.117 46.8 50.25v5.75h-26.7v-4.3c-.7-11.833-5.833-19.45-15.4-22.85l.1.05c-3.533-1.5-7.8-2.267-12.8-2.3H16.1m33.35-6.3c0 .767.267 1.417.8 1.95.533.533 1.183.8 1.95.8.767 0 1.417-.267 1.95-.8.533-.533.8-1.183.8-1.95 0-.767-.267-1.417-.8-1.95-.533-.533-1.183-.8-1.95-.8-.767 0-1.417.267-1.95.8-.533.533-.8 1.183-.8 1.95M35.5 32.6c-1.033 1.067-1.55 2.35-1.55 3.85v.15c.033 1.433.55 2.65 1.55 3.65 1.067 1.067 2.35 1.6 3.85 1.6 1.167 0 2.2-.317 3.1-.95l.7-.65c1.033-1 1.567-2.217 1.6-3.65v-.15c0-1.5-.533-2.783-1.6-3.85l-.7-.6c-.9-.633-1.933-.95-3.1-.95-1.5 0-2.783.517-3.85 1.55" fill="#1EA7E1"/><path d="M35.5 32.6c1.067-1.033 2.35-1.55 3.85-1.55 1.167 0 2.2.317 3.1.95l.7.6c1.067 1.067 1.6 2.35 1.6 3.85v.15c-.033 1.433-.567 2.65-1.6 3.65l-.7.65c-.9.633-1.933.95-3.1.95-1.5 0-2.783-.533-3.85-1.6-1-1-1.517-2.217-1.55-3.65v-.15c0-1.5.517-2.783 1.55-3.85m13.95 3.75c0-.767.267-1.417.8-1.95.533-.533 1.183-.8 1.95-.8.767 0 1.417.267 1.95.8.533.533.8 1.183.8 1.95 0 .767-.267 1.417-.8 1.95-.533.533-1.183.8-1.95.8-.767 0-1.417-.267-1.95-.8-.533-.533-.8-1.183-.8-1.95" fill="#2CB8F3"/></g></svg>
